!! 00000] TT[WS
!!!OTL: Xuan zhong
!!!ARE: Asia, China, Shanxi Zuoquan
!! Ethnic Group: Han
!! WII, 248 (2)
!!!SCT: J0771
!!!YEM: Copyright 1995, estate of Helmut Schaffrath.
**kern
*ICvox
*Ivox
*M2/4
*k[f#c#g#]
*A:
{8b
8b
8b
8cc#
=1
8b
8a
8f#
8a
=2
8b
8b
8cc#
8a
=3
4b
4r}
=4
{4e
8e
8f#
=5
4a
8b
8f#
=6
8.a
16a
8b
8f#
=7
4a
4r}
=8
{8a
8b
8cc#
8ee
=9
4.b
8cc#
=10
8.e
16f#
8a
8g#
=11
2f#}
=12
{4f#
8f#
8g#
=13
8f#
8e
8d
8c#
=14
4e
4e
=15
8f#
8b
8g#
8f#
=16
8e
8e
8f#
8c#
=17
2e}
==
!!!AGN: Xiaodiao. Laodong, Xinminge
!!!ONB: ESAC (Essen Associative Code) Database: CHINA
!!!AMT: simple duple
!!!AIN: vox
!!!EED: Helmut Schaffrath
!!!EEV: 1.0
*-
